X:1
T:O Beata Virgo Maria
T:Oliver Hayes
T:O Beata Virgo Maria
C:Oliver Hayes
%%score [ 1 2 3 4 ]
L:1/8
Q:1/4=180
M:4/2
K:C
V:1 treble nm="Soprano"
V:2 treble nm="Alto"
V:3 treble-8 nm="Tenor"
V:4 bass nm="Bass"
V:1
"^from Antiphonale Monasticum\nBenedictus antiphon for feast of Our Lady of Perpetual Succour" z16 | %1
w: |
 z16 | z16 | z16 | z8 d6 d2 | d4 c4 B4 d4 | G4 A4 B4 c4 | B6 A2 B4 c4 | d8 c8 | G4 A4 B4 c4 | %10
w: |||O be-|a- ta vir- *|go _ _ Ma-|ri- * a, O|be- a-|ta _ vir- *|
 d8 d8 | A8 B8 | B16 | (3G4 A4 B4 c8 | z8 d6 c2 | B8 A8 | c6 B2 G8 | D8 E4 F4 | G4 A4 (3B4 c4 d4 | %19
w: go Ma-|ri- a,|Ma-|ri- * * a,|O be-|a- ta|vir- * go|Ma- * *||
 (3e4 d4 c4 A8 | B4 c4 d4 e4 | f8 d4 B4 | c16 | d8 z8 | G8 B4 c4 | d8 G8 | A4 B4 c4 d4 | c4 B4 A8 | %28
w: * * * ri-||a, Ma- *|ri-|a,|tu gra- ti-|ae Ma-|ter, _ _ tu|gra- ti- ae|
 A2 B2 c2 d2 e8- | e4 B4 c8 | d8 c4 B4 | A8 z8 | c8 e4 d4 | c8 G8 | (3A4 B4 c4 d4 f4- | f8 e4 d4 | %36
w: Ma- * * * ter,|_ tu gra-|ti- ae Ma-|ter,|tu spes _|mun- di,|tu _ _ spes mun-|* di, tu|
 c8 B8 | A4 c4 f8 | e4 d4 c8 | (3B4 A4 G4 F4 G4 | A16 | c16 | B4 z4 z4 A4 | A6 B2 c4 d4 | e8 B8 | %45
w: spes mun-|di, tu spes|mun- * *|di, _ _ _ tu|spes|mun-|di, suc-|cur- re fi- li-|is tu-|
 d8 d8 | c6 B2 A4 A4 | G8 (3A4 B4 c4 | d12 d4 | f6 e2 d4 c4 | A8 A4 B4 | c4 d2 e2 f8 | e4 d4 c8 | %53
w: is cla-|man- ti- bus ad|te, suc- * *|cur- re|fi- * li- is|tu- is cla-|man- * * *|* ti- bus|
 B8 c4 d4 | e8 d4 c4 | B4 G4 D8 | z8 A8 | c4 d4 e6 d2 | c2 B2 A2 G2 E8 | F8 d8 | c16 | %61
w: ad _ _|te, _ _|_ ad te,|al-|le- * lu- *|* * * * ia,|al- le-||
 (3e4 d4 c4 (3B4 A4 G4 | F8 A8 | G12 A4 | B8 A4 B4 | c8 z8 | G8 A4 B4 | c4 d4 e8- | e4 f4 g8 | %69
w: lu- * * * * *|* ia,|al- le-|lu- * *|ia,|al- le- *|* * lu-|* * ia,|
 g4 e4 c8- | c16 | B16 |] %72
w: al- le- lu-||ia.|
V:2
 z16 | z16 | z16 | G6 G2 G4 F4 | E4 G4 D4 E4 | F4 E4 G6 A2 | B8 G8 | D8 E8 | F4 G4 A8 | %9
w: |||O be- a- ta|vir- * go _|_ Ma- ri- *|a, Ma-|ri- a,|O be- a-|
 E4 F4 G4 A4 | B4 G4 F8- | F4 E4 D4 z4 | G6 F2 E8 | D8 F6 E2 | C8 G,8 | G8 C8 | E4 G4 B8- | %17
w: ta _ vir- *|go Ma- ri-|* * a,|O be- a-|ta vir- *|go Ma-|ri- a,|O be- a-|
 B4 A4 G4 F4 | E8 D8 | E8 F4 E4 | D8 G8 | A8 z8 | C8 E4 F4 | G8 C8 | B,8 D4 E4 | G16 | F16 | %27
w: * * * ta|vir- go|Ma- ri- *||a,|tu gra- ti-|ae Ma-|* ter, _|tu|gra-|
 F8 (3C4 D4 E4 | F8 G4 A4 | B8 E8 | z8 F8 | A4 G4 F8 | C12 D4 | E16 | D8 A8- | A8 A8 | %36
w: ti- ae _ _|Ma- * *|* ter,|tu|spes _ mun-|di, tu|spes|mun- di,|_ tu|
 (3G4 F4 E4 D8- | D4 C4 F8 | G16 | G8 z4 D4 | D6 E2 F4 G4 | A8 E8 | G4 G4 F6 E2 | D4 D4 C4 F4 | %44
w: spes _ _ mun-|* di, spes|mun-|di, suc-|cur- re fi- li-|is tu-|is cla- man- ti-|bus ad te, suc-|
 G8 (3E4 D4 C4 | B,8 (3D4 E4 F4 | G8 D8 | E8 F8 | D4 D4 G6 G2 | F4 G4 A4 G4 | F6 G2 A4 G4 | %51
w: cur- * * *|re fi- * *|* li-|is tu-|is cla- man- ti-|bus _ _ ad|te, suc- cur- re|
 E8 C4 D4 | C4 D4 E4 F4 | G6 G2 F4 F4 | G8 z8 | D8 F4 G4 | A6 G2 F2 E2 D2 C2 | A,8 A4 A4 | %58
w: fi- li- is|tu- * is cla-|man- ti- bus ad|te,|al- le- *|lu- * * * * *|ia, al- le-|
 G4 F2 E2 (3G4 F4 E4 | D16 | E8 E8 | (3G4 F4 E4 D8 | C8 z8 | z8 C8 | D4 E4 F4 G4 | A12 B4 | %66
w: lu- * * ia, _ _|_|al- le-|lu- * * *|ia,|al-|le- * * *|lu- *|
 c8 A4 G4 | G8 G8 | G4 A4 G8 | E16 | F8 G8- | G16 |] %72
w: ia, al- le-|lu- ia,|al- * le-|lu-|* ia.|_|
V:3
 z16 | z8 d6 d2 | d4 c4 B4 d4 | G4 A4 B4 c4 | G6 A2 B8 | A4 c4 G6 F2 | E16 | B4 A4 G8 | A16 | %9
w: |O be-|a- ta vir- *|go _ _ Ma-|ri- * a,|Ma- * ri- *|a,|O Ma- ri-|a,|
 z8 d6 c2 | B8 A8 | c6 B2 G8 | D8 E2 F2 G2 A2 | B8 A8 | G4 A4 B4 c4 | d4 e4 f4 F4 | %16
w: O be-|a- ta|vir- * go|Ma- ri- * * *|* a,|vir- * go Ma-|ri- * * a,|
 G4 B4 d2 c2 B2 A2 | G16 | c8 B4 A4 | G8 z8 | G8 B4 c4 | d8 G8 | (3A4 G4 F4 G4 A4 | B8 (3A4 B4 c4 | %24
w: O be- a- * * *|ta|vir- * *|go,|tu gra- ti-|ae Ma-|ter, _ _ _ tu|gra- ti- * *|
 (3d4 e4 f4 g8 | d8 c8 | c8 A6 A2 | A8 F8 | z8 c8 | e4 d4 c8 | G8 A4 B4 | c16 | G8 G8 | %33
w: ae _ _ Ma-|ter, tu|gra- ti- ae|Ma- ter,|tu|spes _ mun-|di, tu _|spes|mun- di,|
 (3G4 A4 B4 (3c4 d4 e4 | f12 d4 | c8 c4 d4 | e8 g8 | z4 A4 A6 B2 | c4 d4 e8 | B8 d8 | d8 c6 B2 | %41
w: tu _ _ spes _ _|mun- *|di, tu spes|mun- di,|suc- cur- re|fi- li- is|tu- is|cla- man- ti-|
 A4 A4 G8 | d4 c2 B2 A8 | A8 G4 A2 B2 | c2 d2 e2 f2 g8 | g8 g8 | e8 f8 | c4 e4 d8 | G4 A4 B6 B2 | %49
w: bus ad te,|suc- cur- * re|fi- li- is _|_ _ _ _ tu-|is cla-|man- ti-|bus ad te,|cla- * man- ti-|
 A4 G4 F4 E4 | D8 d4 e4 | c8 z8 | A8 c4 d4 | e6 d2 c2 B2 A2 G2 | E8 G8- | G8 A8 | e4 c8 f4 | %57
w: bus _ _ ad|te, ad _|te,|al- le- *|lu- * * * * *|ia, al-|* le-|lu- ia, al-|
 (3f4 e4 d4 c6 d2 | e4 c8 c4 | A12 B4 | c4 d4 e8 | z8 G8 | A4 B4 c4 d4 | e12 f4 | g8 d8 | %65
w: le- * * lu- *|ia, al- le-|lu- *|* * ia,|al-|le- * * *|lu- *|ia, al-|
 c8 (3f4 e4 d4 | e8 d6 d2 | c4 B4 c8 | c8 d8 | c16- | c8 d8- | d16 |] %72
w: le- lu- * *|ia, al- le-|lu- * ia,|al- le-|lu-|* ia.|_|
V:4
 G,6 G,2 G,4 F,4 | E,4 G,4 D,4 E,4 | F,4 E,4 G,6 A,2 | B,8 B,,4 A,,4 | C,8 B,,4 C,4 | %5
w: O be- a- ta|vir- * go _|_ Ma- ri- *|a, Ma- *|ri- a, _|
 D,4 E,2 F,2 G,8 | z16 | G,6 F,2 E,8 | D,8 F,6 E,2 | C,8 G,,8 | G,,2 A,,2 B,,2 C,2 D,4 E,4 | %11
w: _ _ _ _||O be- a-|ta vir- *|go Ma-|ri- * * * * *|
 F,8 G,8 | G,,8 G,8 | G,8 F,8 | E,4 F,4 G,4 A,4 | B,2 A,2 G,4 F,8 | E,8 G,8 | z8 C,8 | %18
w: * a,|O be-|a- ta|vir- * go Ma-|ri- * * *|* a,|tu|
 E,4 F,4 G,8 | C,8 D,8 | G,12 E,4 | (3D,4 E,4 F,4 G,8 | F,8 C,8 | B,,2 C,2 D,2 E,2 F,8 | %24
w: gra- ti- ae|Ma- ter,|tu gra-||ti- ae|Ma- * * * ter,|
 G,8 G,,4 C,4 | (3B,,4 A,,4 G,,4 (3C,4 D,4 E,4 | F,8 z8 | F,8 A,4 G,4 | F,8 C,8 | G,8 A,8 | %30
w: tu gra- ti-|ae _ _ Ma- * *|ter,|tu spes _|mun- di,|tu spes|
 (3B,4 A,4 G,4 F,8- | F,4 G,4 (3A,4 G,4 F,4 | E,4 D,4 C,8- | C,8 z8 | z4 D,4 D,6 E,2 | %35
w: mun- * * di,|_ tu spes _ _|mun- * di,|_|suc- cur- re|
 F,4 G,4 A,8 | E,8 G,4 G,4 | F,6 E,2 D,4 D,4 | C,12 D,4 | E,8 D,8 | F,4 G,4 A,8 | %41
w: fi- li- is|tu- is cla-|man- ti- bus ad|te, suc-|cur- re|fi- li- is|
 F,8 (3E,4 D,4 C,4 | B,,4 C,4 D,6 E,2 | F,8 E,4 D,4 | C,8 E,8 | G,4 A,4 B,8 | C8 D4 D,4 | %47
w: tu- * * *|is cla- man- ti-|bus ad _|te, suc-|cur- * re|fi- li- is|
 E,8 D,4 C,4 | B,,6 A,,2 G,,4 B,,4 | D,8 z8 | D,8 F,4 G,4 | A,6 G,2 F,2 E,2 D,2 C,2 | A,,8 A,,8 | %53
w: tu- is cla-|man- ti- bus ad|te,|al- le- *|lu- * * * * *|ia, al-|
 E,4 G,4 F,4 D,4 | C,8 B,,4 E,4 | G,8 D,8 | C,8 F,8- | F,4 F,4 A,8 | C4 z4 C,8 | D,4 E,4 F,4 G,4 | %60
w: le- * lu- *|ia, al- *|le- lu-|ia, al-|* le- lu-|ia, al-|le- * * *|
 A,12 B,4 | C8 B,8 | A,4 G,4 F,8 | C,12 A,,4 | G,,8 D,8 | F,8 F,8 | %66
w: lu- *|ia, al-|* * le-|lu- *|ia, al-|le- lu-|
"^A.M.D.G.\nDownside Abbey,Saturday 12th March 2016\nFeast of St. Gregory the Great" C8 F,4 G,4 | %67
w: ia, al- le-|
 E,4 D,4 C,8 | C,4 A,,4 (3G,,4 A,,4 B,,4 | C,4 D,4 (3E,4 F,4 G,4 | A,8 G,8- | G,16 |] %72
w: lu- * ia,|al- * le- * *|lu- * * * *|* ia.|_|

